X: 47
T:Sunset Over Ayr
% Nottingham Music Database
S:Bryon Bonnett
M:3/4
L:1/4
K:G
D|"G"B3/2A/2B|"Bm"d2d|"C"eGA|"D7"B2A|"Em"G3/2F/2G|"C"G2G|"Am"ecB|
"D7"A2D|"G"B3/2A/2B|"Bm"d2d|"C"gcB|"D7"B2A|"Em"B3/2A/2B|"Bm"d2D|"D7"DBA|
"G"G2A|"Em"B3/2A/2B|"Bm"d2d|"Em"B3/2A/2B|"Bm"d3|"C"e2e|"G"d2B|B3/2c/2B|"D7"A2D\
|
"G"B3/2A/2B|"Bm"d2d|"C"gcB|"D7"B2A|"Em"B3/2A/2B|"Bm"d2D|"D7"DBA|"G"G2||


